!!!!SEGMENT: pl-kk--kk-i-277--002-009_anonim--rorate-caeli-agnus-dei.krn
!!!cenid: 16xx:1091
!!!COM: Anonim
!!!COM-rismid: pe30004985
!!!CDT:
!!!CNT:
!!!OPR: Rorate caeli
!!!OTL: Agnus Dei
!!!OMV: 009
!!!PDT:
!!!AGN: Sacred
!!!SMS-siglum: PL-Kk
!!!SMS-shelfmark: Kk.I.277
!!!SMS-shelfwork: 002-009 M
!!!SMS-variant:
!!!SMS-altvar:
!!!NIFC-rismid: 1001147188
!!!URL-scan: http://repozytorium.nifc.pl/skany/pl-kk-nut--i-277
!!!ONB-nifc: UWAGA: Introitus Secundi officii od str. 5. części: 1. Rorate caeli (Rorate caeli + Benedixisti + Gloria patri), 2. Kyrie, 3. Et in terra, 4. Tollite portas, 5. Alleluia, 6. Mittit ad virginem, 7. Ave Maria, 8. Sanctus, 9. Agnus Dei, 10. Ecce virgo
!!!AIN: 1 tenor
!!!key:
**kern	**text
*Itenor	*
*I"[Tenore]	*
*I'[T]	*
*clefC4	*
*k[]	*
*F:	*
*M2/1	*
*met(C)	*
=1-	=1-
!LO:TX:a:t=P:problem=inicjał A przed kluczem	!
1c	A-
*lig	*
1d	.
=2-	=2-
1c	.
*Xlig	*
*lig	*
1A	.
=3-	=3-
1F	.
*Xlig	*
1G	.
=4-	=4-
*lig	*
1A	.
1G	.
*Xlig	*
=5-	=5-
1E	-gn(us)
1F	.
=6-	=6-
*lig	*
1B	De-
1A	.
*Xlig	*
=7-	=7-
1G	.
*lig	*
1A	.
=8-	=8-
1G	.
*Xlig	*
1F,<	-i
=9-	=9-
1F	qui
!LO:SIC:l:v:s=tol-	!
1A	to-
=10-	=10-
*lig	*
1c	.
1d	.
*Xlig	*
=11-	=11-
1c	.
*lig	*
1f	.
=12-	=12-
1e	.
*Xlig	*
*lig	*
1d	.
=13-	=13-
1c	.
!LO:LB:g=original	!
*Xlig	*
*lig	*
1d	.
=14-	=14-
1e	.
*Xlig	*
!LO:TX:a:t=2	!
0d	.
=15-	=15-
.	.
1c,<	lis
=16-	=16-
1f	-pec-
1d	-ca-
=17-	=17-
1f	-ta
1e	mun-
=18-	=18-
*lig	*
1f	.
1e	.
*Xlig	*
=19-	=19-
*lig	*
1d	.
1c	.
*Xlig	*
=20-	=20-
1d	.
1c	-di
=21-	=21-
1f	.
*lig	*
1f	mi-
=22-	=22-
1c	.
*Xlig	*
*lig	*
1A	-ſe-
=23-	=23-
1F	-re-
*Xlig	*
1B	-[re]
=24-	=24-
*lig	*
1A	no-
1G	.
*Xlig	*
=25-	=25-
1A	.
0G	.
=26-	=26-
.	.
!LO:TX:t=P:problem=podwójna fermata powyżej i poniżej	!
[1F;;l	-bis,
=27||	=27||
0F]	.
!LO:PB:g=original	!
=28-	=28-
*M2/1	*
*met(C)	*
!LO:TX:a:t=P:problem=inicjał A przed oznaczeniem metrycznym i kluczem na początku pięciolinii	!
1f	A-
1f	-gnus
=29-	=29-
1e	.
1d	.
=30-	=30-
1f	.
1c	De-
=31-	=31-
*lig	*
1c	-i
1d	.
*Xlig	*
=32-	=32-
*lig	*
1e	.
1f,<	.
*Xlig	*
=33-	=33-
1f	qui
1c	.
=34-	=34-
*lig	*
1A	.
1F	.
*Xlig	*
=35-	=35-
*lig	*
1B	tol-
1A	.
*Xlig	*
=36-	=36-
1G	.
*lig	*
1A	.
=37-	=37-
1G	.
*Xlig	*
1F	-lis
=38-	=38-
*custos:c	*
1A	pec-
!LO:LB:g=original	!
1c	-ca-
=39-	=39-
1c	-ta
*lig	*
1d	mun-
=40-	=40-
1e	.
*Xlig	*
*lig	*
1d	.
=41-	=41-
1B	.
*Xlig	*
1c	-di
=42-	=42-
1f	do-
*lig	*
1f	-na
=43-	=43-
1c	.
*Xlig	*
1A	no-
=44-	=44-
1F	-bis
*lig	*
1B	pa-
=45-	=45-
1A	.
*Xlig	*
1G	.
=46-	=46-
*lig	*
1A	.
1G	.
*Xlig	*
=47-	=47-
1G	-cem
!LO:TX:t=P:problem=podwójna fermata powyżej i poniżej	!
[1F;;l	.
=48-	=48-
0F]	.
=-	=-
*-	*-
!!!RDF**kern: l = terminal long
!!!RDF**kern: > = above
!!!RDF**kern: < = below
!!!EED: Antoni Szymański
!!!EEV: 2021-03-28
!!!ENC: Tomasz Grochalski
!!!END: 2021-03-14
